X: 7
T: Sandy Boys
B: canberra pickers and fiddlers
B: tunes
M:4/4
L:1/8
R: reel
Q: 1/4=100
K:Amixolydian
V:1 
eg|"A"abag egec|d2c2A2ef|gagf efge|a3b a2eg|
"A"abag egec|d2c2A2AB|cdec "E7"d2c2|"A"A3B A2:|
|:"*""A"[e4e4] efge|d2[c2e2][A2e2]AB|c2A2c2A2|"D"[ce]-[d3f3][d4f4]|
"A"[e4e4] efge|d2[c2e2][A2e2]AB|cdec "E7"d2c2|"A"A3B A2:|
"*"{B}c2d2 efge|...
% abcbook-tune_id 63ae8f1ce21093ebc022d5de
% abcbook-tune_composer_id 
% abcbook-link-0 https://www.youtube.com/watch?v=KHJbZr_zMj0
% abcbook-link-1 https://www.youtube.com/watch?v=wkGqxL2brqE
% abcbook-boost 10
% abcbook-difficulty 0
% abcbook-tags canberra pickers and fiddlers,old time tunes,© free
% abcbook-tablature 
% abcbook-transpose 
% abcbook-tuning AEAE
% abcbook-lastupdated 1722907281152
% abcbook-src-url https://tunebook.net/scrape/tunes.abc
% abcbook-soundfonts 
% abcbook-repeats 1


